packages/components/icon/src/assets/icons/tools.svg

<svg width="24" height="24" viewBox="0 0 24 24" fill="none" xmlns="http://www.w3.org/2000/svg">
<path fill-rule="evenodd" clip-rule="evenodd" d="M19.2108 13.7569C19.2108 13.7281 19.2144 13.6671 19.2216 13.5737C19.2287 13.4802 19.2323 13.3617 19.2323 13.218C19.2323 12.6144 19.1353 12.0072 18.9413 11.3964C18.7473 10.7856 18.3772 10.3222 17.8311 10.006H17.7665C17.6228 10.006 17.3784 10.1641 17.0335 10.4802L12.3341 15.1581C12.3772 15.3018 12.3988 15.4383 12.3988 15.5677C12.3988 15.812 12.3198 16.0132 12.1617 16.1713C12.1329 16.1856 12.0826 16.2287 12.0108 16.3006C11.6515 16.6743 11.0156 17.3138 10.103 18.2192C9.19041 19.1246 8.38204 19.9293 7.67784 20.6335C7.60599 20.7054 7.56287 20.7557 7.5485 20.7844C7.39042 20.9425 7.18204 21.0216 6.92335 21.0216C6.63593 21.0216 6.32695 20.9102 5.99641 20.6874C5.66587 20.4647 5.39282 20.188 5.17725 19.8575C4.96168 19.5269 4.85389 19.218 4.85389 18.9305C4.85389 18.6862 4.93293 18.485 5.09102 18.3269C5.13413 18.3126 5.17725 18.2695 5.22036 18.1976L9.57485 13.8431C9.63234 13.8 9.67545 13.7569 9.70419 13.7138C9.86228 13.5557 10.0635 13.4766 10.3078 13.4766C10.4371 13.4766 10.5737 13.4982 10.7174 13.5413L14.8994 9.35928C14.9138 9.33054 14.9928 9.21916 15.1365 9.02515C15.2802 8.83114 15.3521 8.60479 15.3521 8.34611C15.3521 8.17365 15.309 7.99401 15.2228 7.80719C14.9928 7.39042 14.5617 7.11737 13.9293 6.98802H13.9078C13.7497 6.98802 13.5916 6.93054 13.4335 6.81557C13.2754 6.7006 13.1281 6.57844 12.9916 6.4491C12.8551 6.31976 12.7653 6.23353 12.7222 6.19042L12.3988 5.86707C12.3126 5.78084 12.2515 5.70898 12.2156 5.6515C12.1796 5.59401 12.1617 5.53653 12.1617 5.47904C12.1617 5.37844 12.291 5.1988 12.5497 4.94012L14.1018 3.36647C14.3461 3.12215 14.5329 3 14.6623 3C14.7198 3 14.7916 3.03234 14.8778 3.09701C14.9641 3.16168 15.0359 3.22635 15.0934 3.29102C15.1509 3.35569 15.194 3.4024 15.2228 3.43114L15.3521 3.56048C15.5964 3.80479 15.7796 4.00239 15.9018 4.15329C16.024 4.30419 16.1066 4.45868 16.1497 4.61677C16.1641 4.70299 16.2144 4.83952 16.3006 5.02635C16.3868 5.21317 16.509 5.40718 16.6671 5.60838C16.7102 5.66587 16.8395 5.69461 17.0551 5.69461C17.2707 5.69461 17.4072 5.72335 17.4647 5.78084L20.0299 8.34611C20.6767 8.99282 21 9.96287 21 11.2563C21 11.788 20.9533 12.3233 20.8599 12.8623C20.7665 13.4012 20.6659 13.8467 20.5581 14.1988C20.4503 14.5509 20.382 14.7701 20.3533 14.8563L19.2108 13.7569ZM9.91976 12.2695L8.38922 10.7605C7.92934 10.976 7.52695 11.0838 7.18204 11.0838C6.49221 11.0838 5.82396 10.8862 5.17725 10.491C4.53054 10.0958 4.00599 9.57485 3.60359 8.92814C3.2012 8.28143 3 7.60599 3 6.9018C3 6.88742 3.12215 6.75809 3.36647 6.51377L3.99162 7.13892C4.46587 7.61318 4.77126 7.89341 4.90778 7.97964C5.04431 8.06587 5.21317 8.10539 5.41437 8.0982C5.61557 8.09102 5.76647 8.08743 5.86707 8.08743C6.14012 8.08743 6.4491 7.96527 6.79401 7.72096C7.13892 7.47665 7.43712 7.17844 7.68862 6.82635C7.94012 6.47425 8.06587 6.16168 8.06587 5.88862V5.37126C8.06587 5.12695 7.99042 4.92216 7.83952 4.75689C7.68862 4.59162 7.23952 4.14252 6.49222 3.40958C6.56407 3.32335 6.63593 3.24431 6.70778 3.17246C6.77964 3.1006 6.83713 3.0503 6.88024 3.02156C7.57006 3.02156 8.23832 3.21916 8.88503 3.61437C9.53174 4.00958 10.0563 4.53054 10.4587 5.17725C10.8611 5.82396 11.0623 6.4994 11.0623 7.20359C11.0623 7.59162 10.9473 8.0012 10.7174 8.43234L12.3772 10.1138L10.2647 12.2263C10.1784 12.2263 10.0635 12.2407 9.91976 12.2695ZM13.6491 15.6108L15.7617 13.4982L18.7581 16.4946L20.7844 17.982L21 18.8012L18.7581 21.0431L17.9605 20.8275L16.4515 18.8012L13.606 15.9557C13.6347 15.812 13.6491 15.697 13.6491 15.6108ZM18.5425 17.6371C18.2838 17.6371 18.0647 17.7269 17.885 17.9066C17.7054 18.0862 17.6156 18.3126 17.6156 18.5856C17.6156 18.8443 17.7054 19.0635 17.885 19.2431C18.0647 19.4228 18.2838 19.5126 18.5425 19.5126C18.8156 19.5126 19.0419 19.4228 19.2216 19.2431C19.4012 19.0635 19.491 18.8443 19.491 18.5856C19.491 18.3126 19.4012 18.0862 19.2216 17.9066C19.0419 17.7269 18.8156 17.6371 18.5425 17.6371Z" fill="currentColor"/>
</svg>

<svg viewBox="0 0 24 24" fill="none" xmlns="http://www.w3.org/2000/svg"><path fill-rule="evenodd" clip-rule="evenodd" d="M19.21 13.757c0-.029.004-.09.012-.183a5.99 5.99 0 0 0-.28-2.177 2.385 2.385 0 0 0-1.11-1.391h-.066c-.143 0-.388.158-.732.474l-4.7 4.678c.043.144.065.28.065.41a.818.818 0 0 1-.237.603.78.78 0 0 0-.151.13c-.36.373-.995 1.013-1.908 1.918a876.76 876.76 0 0 0-2.425 2.415.792.792 0 0 0-.13.15c-.158.159-.366.238-.625.238-.287 0-.596-.112-.927-.335a2.903 2.903 0 0 1-.819-.83c-.215-.33-.323-.639-.323-.927 0-.244.079-.445.237-.603.043-.014.086-.058.13-.13l4.354-4.354a.549.549 0 0 0 .13-.13.818.818 0 0 1 .603-.236c.13 0 .266.021.41.064l4.181-4.182a5.48 5.48 0 0 1 .238-.334 1.11 1.11 0 0 0 .215-.679c0-.172-.043-.352-.13-.539-.23-.417-.66-.69-1.293-.819h-.021a.803.803 0 0 1-.474-.172 4.425 4.425 0 0 1-.442-.367 17.45 17.45 0 0 1-.27-.259l-.323-.323a1.33 1.33 0 0 1-.183-.215.323.323 0 0 1-.054-.173c0-.1.129-.28.388-.539l1.552-1.574c.244-.244.43-.366.56-.366.058 0 .13.032.216.097s.158.13.215.194c.058.065.101.111.13.14l.13.13c.243.244.427.441.549.592.122.151.205.306.248.464.014.086.064.223.15.41.087.186.209.38.367.581.043.058.172.087.388.087.216 0 .352.028.41.086l2.565 2.565c.647.647.97 1.617.97 2.91 0 .532-.047 1.067-.14 1.606a11.24 11.24 0 0 1-.302 1.337c-.108.352-.176.571-.205.657l-1.142-1.1ZM9.92 12.27l-1.53-1.51c-.46.216-.863.324-1.208.324-.69 0-1.358-.198-2.005-.593a4.742 4.742 0 0 1-1.573-1.563C3.2 8.281 3 7.606 3 6.902c0-.015.122-.144.366-.388l.626.625c.474.474.78.754.916.84a.87.87 0 0 0 .506.12 12.5 12.5 0 0 1 .453-.012c.273 0 .582-.122.927-.366.345-.244.643-.543.895-.895.251-.352.377-.664.377-.937V5.37a.877.877 0 0 0-.226-.614 53.63 53.63 0 0 0-1.348-1.347c.072-.087.144-.166.216-.238.072-.071.13-.122.172-.15.69 0 1.358.197 2.005.592a4.742 4.742 0 0 1 1.574 1.563c.402.647.603 1.322.603 2.027 0 .388-.115.797-.345 1.228l1.66 1.682-2.112 2.112c-.087 0-.202.015-.345.043Zm3.73 3.34 2.112-2.112 2.996 2.997 2.026 1.487.216.82-2.242 2.241-.797-.215-1.51-2.027-2.845-2.845c.029-.144.043-.259.043-.345Zm4.893 2.027a.92.92 0 0 0-.927.948c0 .26.09.479.269.658.18.18.399.27.657.27a.92.92 0 0 0 .949-.927.92.92 0 0 0-.948-.949Z" fill="currentColor"/></svg>
